StripePaymentsUI/StripePaymentsUI/Resources/StripePaymentsUI.xcassets/Cards/stp_card_cvc.imageset/cvcDark.svg

<svg fill="none" height="17" viewBox="0 0 26 17" width="26" xmlns="http://www.w3.org/2000/svg" xmlns:xlink="http://www.w3.org/1999/xlink"><clipPath id="a"><path d="m0 0h26v17h-26z"/></clipPath><g clip-path="url(#a)" clip-rule="evenodd" fill="#fff" fill-rule="evenodd"><path d="m18.7151 11.1053c.5144.1499 1.0518.228 1.5974.228 1.3562 0 2.6625-.4826 3.6875-1.35235v5.33485c0 .7916-.8938 1.6842-1.6552 1.6842h-20.68963c-.761377 0-1.65517-.8926-1.65517-1.6842v-12.63159c0-.79158.893793-1.68421 1.65517-1.68421h15.43093c-.2827.19403-.5491.41448-.7953.65973-1.0666 1.0627-1.6658 2.50404-1.6658 4.00694 0 1.03437.2838 2.03959.8086 2.91228h-12.95084c-.52966 0-.82759.28631-.82759.8421v.84215c0 .5557.29793.8421.82759.8421z" fill-opacity=".2"/><path d="m14.8621 4.04785h-14.8621v2.42857h14.6833c-.0386-.26655-.0583-.53702-.0583-.80951 0-.5533.0812-1.09826.2371-1.61906z" fill-opacity=".3"/><path d="m20.3125 11.3333c-1.5084 0-2.9551-.597-4.0217-1.65969-1.0666-1.06271-1.6658-2.50405-1.6658-4.00694 0-1.5029.5992-2.94424 1.6658-4.00694 1.0666-1.062708 2.5133-1.65973 4.0217-1.65973s2.9551.597022 4.0217 1.65973c1.0666 1.0627 1.6658 2.50404 1.6658 4.00694 0 1.50289-.5992 2.94423-1.6658 4.00694-1.0666 1.06269-2.5133 1.65969-4.0217 1.65969zm-2.2587-8.01425h-.6419l-1.5681.79333v.80953l1.2431-.64762v3.74h.975v-4.69524zm1.8687.64762c.4631 0 .7881.25904.7881.63143 0 .40476-.3818.68809-.9343.68809h-.2438v.6881h.2925c.585 0 .9831.29143.9831.71238 0 .40476-.39.68-.9425.68-.4062 0-.8125-.12953-1.235-.38048v.80952c.455.19429.91.29953 1.3569.29953 1.0644 0 1.7956-.54238 1.7956-1.32762 0-.55048-.3412-.99572-.91-1.17381.4875-.1619.8044-.59095.8044-1.07667 0-.76095-.6744-1.27904-1.6494-1.27904-.4395.00485-.8734.09849-1.2756.27523v.79334c.39-.21857.7881-.34 1.17-.34zm3.51 1.76476c.5931 0 1.0075.34809 1.0075.80143 0 .47762-.4144.80952-1.0075.80952-.3575 0-.7312-.11333-1.1131-.34809v.83381c.3981.17809.8044.26714 1.2025.26714.2112 0 .4062-.03238.5931-.08095.4225-.6881.6663-1.48143.6663-2.33143l-.0163-.34c-.3021-.17816-.6484-.26794-.9994-.25905-.1462 0-.3006.0081-.4631.03238v-1.05238h1.17c-.1015-.25912-.2266-.50841-.3737-.74476h-1.6413v2.55c.325-.08095.65-.13762.975-.13762z" fill-opacity=".6"/></g></svg>

<svg width="26" height="17" viewBox="0 0 26 17" fill="none" xmlns="http://www.w3.org/2000/svg">
<g clip-path="url(#clip0_160_8223)">
<path fill-rule="evenodd" clip-rule="evenodd" d="M18.7151 11.1053C19.2295 11.2552 19.7669 11.3333 20.3125 11.3333C21.6687 11.3333 22.975 10.8507 24 9.98095V15.3158C24 16.1074 23.1062 17 22.3448 17H1.65517C0.893793 17 0 16.1074 0 15.3158V2.68421C0 1.89263 0.893793 1 1.65517 1H17.0861C16.8034 1.19403 16.537 1.41448 16.2908 1.65973C15.2242 2.72243 14.625 4.16377 14.625 5.66667C14.625 6.70104 14.9088 7.70626 15.4336 8.57895H2.48276C1.9531 8.57895 1.65517 8.86526 1.65517 9.42105V10.2632C1.65517 10.8189 1.9531 11.1053 2.48276 11.1053H18.7151Z" fill="white" fill-opacity="0.2"/>
<path fill-rule="evenodd" clip-rule="evenodd" d="M14.8621 4.04785H0V6.47642H14.6833C14.6447 6.20987 14.625 5.9394 14.625 5.66691C14.625 5.11361 14.7062 4.56865 14.8621 4.04785Z" fill="white" fill-opacity="0.3"/>
<path fill-rule="evenodd" clip-rule="evenodd" d="M20.3125 11.3333C18.8041 11.3333 17.3574 10.7363 16.2908 9.67361C15.2242 8.6109 14.625 7.16956 14.625 5.66667C14.625 4.16377 15.2242 2.72243 16.2908 1.65973C17.3574 0.597022 18.8041 0 20.3125 0C21.8209 0 23.2676 0.597022 24.3342 1.65973C25.4008 2.72243 26 4.16377 26 5.66667C26 7.16956 25.4008 8.6109 24.3342 9.67361C23.2676 10.7363 21.8209 11.3333 20.3125 11.3333ZM18.0538 3.31905H17.4119L15.8438 4.11238V4.92191L17.0869 4.27429V8.01429H18.0619V3.31905H18.0538ZM19.9225 3.96667C20.3856 3.96667 20.7106 4.22571 20.7106 4.5981C20.7106 5.00286 20.3288 5.28619 19.7763 5.28619H19.5325V5.97429H19.825C20.41 5.97429 20.8081 6.26572 20.8081 6.68667C20.8081 7.09143 20.4181 7.36667 19.8656 7.36667C19.4594 7.36667 19.0531 7.23714 18.6306 6.98619V7.79571C19.0856 7.99 19.5406 8.09524 19.9875 8.09524C21.0519 8.09524 21.7831 7.55286 21.7831 6.76762C21.7831 6.21714 21.4419 5.7719 20.8731 5.59381C21.3606 5.43191 21.6775 5.00286 21.6775 4.51714C21.6775 3.75619 21.0031 3.2381 20.0281 3.2381C19.5886 3.24295 19.1547 3.33659 18.7525 3.51333V4.30667C19.1425 4.0881 19.5406 3.96667 19.9225 3.96667ZM23.4325 5.73143C24.0256 5.73143 24.44 6.07952 24.44 6.53286C24.44 7.01048 24.0256 7.34238 23.4325 7.34238C23.075 7.34238 22.7013 7.22905 22.3194 6.99429V7.8281C22.7175 8.00619 23.1238 8.09524 23.5219 8.09524C23.7331 8.09524 23.9281 8.06286 24.115 8.01429C24.5375 7.32619 24.7813 6.53286 24.7813 5.68286L24.765 5.34286C24.4629 5.1647 24.1166 5.07492 23.7656 5.08381C23.6194 5.08381 23.465 5.09191 23.3025 5.11619V4.06381H24.4725C24.371 3.80469 24.2459 3.5554 24.0988 3.31905H22.4575V5.86905C22.7825 5.7881 23.1075 5.73143 23.4325 5.73143Z" fill="white" fill-opacity="0.6"/>
</g>
<defs>
<clipPath id="clip0_160_8223">
<rect width="26" height="17" fill="white"/>
</clipPath>
</defs>
</svg>
